packages/icons/src/finger-swipe-vertical.svg

<svg width="24" height="24" viewBox="0 0 24 24" fill="none" xmlns="http://www.w3.org/2000/svg">
<path d="M21.1188 10.0743L22.8505 14.1742C23.2348 15.0843 22.8551 16.1226 21.9761 16.6094L16.5066 19.638C16.036 19.8986 15.2533 20.0938 14.7296 19.9528L8.229 18.1192L8.53444 16.9973C8.62425 16.6754 8.86963 16.4147 9.20748 16.307L12.4733 15.338L6.95615 6.21106C6.52978 5.50571 6.78049 4.60693 7.51745 4.19885C8.25441 3.79077 9.19348 4.03073 9.61985 4.73607L12.7021 9.83492L13.5101 9.38751C13.7853 9.23509 14.0965 9.14217 14.4082 9.12839L19.0876 8.8511C19.9717 8.80395 20.7887 9.29296 21.1188 10.0743Z" fill="black"/>
<path fill-rule="evenodd" clip-rule="evenodd" d="M1.94723 10.7209C2.93078 8.77801 4.48355 7.38594 5.65211 6.67837L6.74898 8.33774C5.859 8.87663 4.58877 10.0062 3.79352 11.5771C3.01466 13.1156 2.68397 15.0842 3.62891 17.4106L1.71673 18.1221C0.543386 15.2334 0.947287 12.6961 1.94723 10.7209Z" fill="black"/>
</svg>

<svg xmlns="http://www.w3.org/2000/svg" width="24" height="24" fill="none" viewBox="0 0 24 24">
  <path fill="#000" d="m21.119 10.074 1.732 4.1c.384.91.004 1.949-.875 2.435l-5.47 3.029c-.47.26-1.253.456-1.776.315l-6.501-1.834.305-1.122a1.01 1.01 0 0 1 .673-.69l3.266-.969-5.517-9.127c-.426-.705-.176-1.604.561-2.012.737-.408 1.676-.168 2.103.537l3.082 5.099.808-.447c.275-.153.587-.246.898-.26l4.68-.277c.884-.047 1.7.442 2.03 1.223Z"/>
  <path fill="#000" fill-rule="evenodd" d="M1.947 10.72c.984-1.942 2.537-3.334 3.705-4.042l1.097 1.66c-.89.539-2.16 1.668-2.955 3.24-.78 1.538-1.11 3.506-.165 5.833l-1.912.711c-1.174-2.889-.77-5.426.23-7.401Z" clip-rule="evenodd"/>
</svg>
